X:1
T:Trefoil in Gb
M:8/4
L:1/4
Q:1/4=60
K:Gb
%%MIDI program 46
%%staves {RH LH}
V:RH clef=treble stem=up
V:LH clef=bass stem=down
[V:RH]
[dgb] [CFAc] [FAdg] [Begc'] [EAdf] [eac'] [FAd] [dgb] | [dgb] [dfb] [FBd] [dfa] [EAc] [CEAc] [EAce] [EGB] | [egb] [FBea] [EAd] [FAd] [CEGB] [dfb] [eac'] [egb] |
[egb] [cea] [Bdgc'] [EGc] [FBd] [EAcf] [FBeg] [dgb] | [dgb] [EGBe] [EGc] [fac'] [FAdf] [FAd] [GBd] [EGB] | [EGB] [DFB] [eac'] [EGBd] [Bea] [FAcf] [EGc] [egb] |]
[V:LH]
[G,CFB] [C,E,G,B,] [F,A,D] [B,EA] [E,G,B,D] [A,CFB] [D,F,A,D] [G,CEA] | [G,CEA] [B,DGB] [D,G,B,D] [F,B,EG] [F,A,C] [C,E,A,] [E,G,B,D] [D,G,B,] | [G,CFA] [F,A,C] [E,G,B,D] [D,G,B,D] [C,F,B,] [B,DFB] [A,CFB] [G,CFB] |
[G,CFB] [A,CFB] [B,EA] [C,E,G,C] [D,F,B,D] [E,G,B,] [F,A,D] [G,CEA] | [G,CEA] [E,G,C] [C,E,A,C] [A,DGB] [F,A,C] [D,G,B,D] [F,B,D] [D,G,B,] | [D,G,B,] [D,F,A,] [A,CFB] [E,G,C] [B,DFA] [F,B,E] [C,E,G,C] [G,CFB] |]

%%vskip 36
